docs/assets/big-rock.svg

<svg width="389" height="237" viewBox="0 0 389 237" fill="none" xmlns="http://www.w3.org/2000/svg">
<path fill-rule="evenodd" clip-rule="evenodd" d="M381.07 28.4194C381.07 28.4194 388.827 66.9907 387.946 76.2084C387.065 85.426 369.544 105.784 369.544 105.784C369.544 105.784 351.045 145.834 345.074 165.427C339.104 185.021 295.205 236.901 295.205 236.901H201.828C169.136 236.901 118.948 219.649 118.948 219.649C118.948 219.649 71.6238 132.55 67.5618 128.458C63.4998 124.367 40.6449 116.135 40.6449 116.135C40.6449 116.135 3.15709 48.2596 0.220703 30.3172L104.218 34.6549L381.07 28.4194Z" fill="url(#paint0_linear_1_8301)"/>
<path fill-rule="evenodd" clip-rule="evenodd" d="M381.07 28.4192L331.91 22.2084L303.353 17.2791C303.353 17.2791 179.218 17.4763 140.311 19.7438C140.311 19.7438 99.7396 0.322573 90.906 0.026819C82.0724 -0.268935 62.1539 22.2084 62.1539 22.2084L0.220703 30.317C0.220703 30.317 28.5079 40.1754 50.3105 39.8304L29.5845 46.8545C33.5141 49.8586 37.9606 52.1062 42.7004 53.4844C50.9467 55.949 112.904 57.8467 142.317 57.5017C171.73 57.1566 184.577 46.8545 184.577 46.8545L171.094 41.7035L186.999 39.8057C186.999 39.8057 235.131 48.3087 253.484 48.9002C267.553 48.8758 281.591 47.5641 295.425 44.9814L264.862 35.123C264.862 35.123 281.184 35.3201 308.908 37.834C333.843 40.1508 363.745 32.2147 381.07 28.4192Z" fill="#CECCD4"/>
<g style="mix-blend-mode:multiply" opacity="0.35">
<path fill-rule="evenodd" clip-rule="evenodd" d="M308.835 37.8589V64.7725L335.972 69.4306C335.972 69.4306 337.171 69.9482 340.156 77.6871C343.142 85.426 356.967 104.477 356.967 104.477L369.544 105.882L359.463 128.581C359.463 128.581 344.952 128.729 339.177 132.328C333.403 135.926 320.605 146.721 320.605 146.721L312.921 167.917C312.921 167.917 305.262 128.729 304.748 122.543C304.234 116.357 296.771 89.7391 297.946 85.2535C299.12 80.7679 297.481 63.2198 297.481 63.2198L295.425 44.9816C295.425 44.9816 256.102 50.3298 252.016 51.784C247.929 53.2381 246.119 69.825 246.119 69.825L232.685 101.076L247.685 146.499L241.91 185.021L240.026 213.98L218.737 237H201.828C201.828 237 188.003 161.731 186.999 157.072C185.996 152.414 190.645 141.619 190.645 141.619L183.916 94.2986L184.577 46.8547L171.094 41.7037L186.999 39.8059C186.999 39.8059 236.942 47.323 245.213 48.1117C253.484 48.9004 295.646 44.1683 295.646 44.1683L270.319 34.8521L308.835 37.8589Z" fill="#A7A7A8"/>
</g>
<g style="mix-blend-mode:multiply" opacity="0.35">
<path fill-rule="evenodd" clip-rule="evenodd" d="M93.2062 57.5756L59.5112 63.2195L64.8701 76.2081L79.552 111.699L97.1703 128.581L116.917 135.975L132.285 146.77H118.9L119.927 161.139L127.072 195.348L127.464 222.458L118.948 219.698C118.948 219.698 82.2437 152.685 67.5618 128.507C67.5618 128.507 43.0919 120.867 40.6449 116.184C38.1979 111.501 3.37732 46.4108 0.220703 30.3169L50.3105 39.8303L29.5845 46.8545C29.5845 46.8545 44.2665 53.4104 54.0544 54.9631C63.8424 56.5158 93.2062 57.5756 93.2062 57.5756Z" fill="#A7A7A8"/>
</g>
<g style="mix-blend-mode:color-dodge" opacity="0.46">
<path fill-rule="evenodd" clip-rule="evenodd" d="M138.451 19.4236L150.686 26.0288C150.686 26.0288 141.706 28.2469 136.469 29.8243C131.232 31.4016 102.578 28.8877 97.464 27.3597C92.3498 25.8316 73.6304 19.4236 73.6304 19.4236L72.6271 12.991C72.6271 12.991 86.6484 -0.687674 90.9061 0.0270652C95.1639 0.741804 131.012 15.4309 138.451 19.4236Z" fill="#ABA7B5"/>
</g>
<g style="mix-blend-mode:multiply" opacity="0.33">
<path fill-rule="evenodd" clip-rule="evenodd" d="M60.6353 22.4551L72.5766 29.8489L91.296 30.3419H131.157C131.157 30.3419 100.546 27.4583 95.8964 26.3738C91.2471 25.2894 73.6288 19.4236 73.6288 19.4236L72.6255 12.991L60.6353 22.4551Z" fill="#474757"/>
</g>
<g style="mix-blend-mode:multiply" opacity="0.34">
<path fill-rule="evenodd" clip-rule="evenodd" d="M308.835 64.7723L297.481 91.5873L295.646 44.1927L263.933 34.8765L308.835 37.8587V64.7723Z" fill="#474757"/>
</g>
<g style="mix-blend-mode:multiply" opacity="0.34">
<path fill-rule="evenodd" clip-rule="evenodd" d="M50.3105 39.8303L29.5845 46.8545L38.4916 112.413C38.4916 112.413 10.547 58.7832 0.220703 30.3169L50.3105 39.8303Z" fill="#474757"/>
</g>
<g style="mix-blend-mode:multiply" opacity="0.34">
<path fill-rule="evenodd" clip-rule="evenodd" d="M245.213 48.1366L218.737 74.0151L202.342 91.5878L199.014 106.622L184.332 97.2071L184.577 46.8796L171.094 41.7286L186.999 39.8308L245.213 48.1366Z" fill="#474757"/>
</g>
<g style="mix-blend-mode:multiply" opacity="0.2">
<path d="M106.714 122.001C107.036 121.224 107.404 120.467 107.815 119.734C107.986 119.389 108.109 119.019 108.304 118.699C108.542 118.265 108.838 117.867 109.185 117.516C109.862 116.774 110.699 116.201 111.632 115.84C112.659 115.504 113.753 115.436 114.813 115.643C115.123 115.732 115.413 115.883 115.665 116.086C115.917 116.289 116.126 116.541 116.281 116.826V116.826C116.424 116.974 116.547 117.139 116.649 117.318C116.649 117.54 116.82 117.737 116.893 117.935C117.016 118.386 117.016 118.863 116.893 119.315C116.67 121.046 116.122 122.719 115.278 124.244C114.776 125.163 114.073 125.955 113.223 126.561C112.391 127.184 111.371 127.498 110.335 127.448C109.674 127.396 109.032 127.203 108.451 126.881C107.888 126.524 107.411 126.044 107.056 125.476C106.743 124.96 106.55 124.38 106.491 123.778C106.431 123.177 106.508 122.569 106.714 122.001V122.001Z" fill="#A7A7A8"/>
</g>
<g style="mix-blend-mode:multiply" opacity="0.2">
<path d="M124.258 113.646C122.68 111.264 121.637 108.564 121.2 105.734C120.84 103.842 121.018 101.886 121.714 100.091C122.38 98.6341 123.201 97.2542 124.16 95.9746C125.922 93.3647 128.348 91.2793 131.183 89.9363C131.893 89.6156 132.63 89.3599 133.386 89.1722C135.084 88.3559 136.965 87.9991 138.842 88.1371C141.022 88.422 143.053 89.4084 144.631 90.9494C146.21 92.4904 147.252 94.5036 147.603 96.6893C148.054 99.5989 147.519 102.577 146.085 105.143C144.901 107.547 143.586 109.884 142.146 112.142C140.237 114.928 137.864 117.885 134.34 118.304C132.397 118.53 130.43 118.216 128.653 117.394C126.875 116.573 125.355 115.277 124.258 113.646V113.646Z" fill="#A7A7A8"/>
</g>
<g style="mix-blend-mode:multiply" opacity="0.2">
<path d="M119.094 150.788C118.656 149.709 118.304 148.596 118.042 147.46C117.871 146.943 117.65 146.475 117.528 145.957C117.378 145.252 117.305 144.533 117.308 143.813C117.345 142.117 117.702 140.444 118.36 138.884C119.098 137.133 120.143 135.53 121.443 134.151C122.171 133.435 123.121 132.991 124.135 132.895H124.331C124.603 132.788 124.895 132.738 125.187 132.747H126.044C126.6 132.919 127.077 133.286 127.389 133.782C128.865 135.503 129.906 137.558 130.424 139.771C130.757 141.339 130.757 142.96 130.424 144.528C130.079 146.339 129.288 148.034 128.124 149.457C127.442 150.348 126.615 151.115 125.677 151.724C124.817 152.248 123.859 152.584 122.863 152.71C122.115 152.816 121.352 152.688 120.679 152.345C120.005 152.001 119.452 151.458 119.094 150.788Z" fill="#A7A7A8"/>
</g>
<g style="mix-blend-mode:multiply" opacity="0.2">
<path d="M314.046 145.07C315.196 146.647 322.194 143.813 323.369 142.211C330.71 132.081 331.615 118.748 327.015 121.311C322.415 123.874 305.824 133.585 314.046 145.07Z" fill="#A7A7A8"/>
</g>
<g style="mix-blend-mode:multiply" opacity="0.2">
<path d="M301.2 123.751C301.594 123.572 302.021 123.48 302.453 123.483C302.885 123.487 303.311 123.584 303.702 123.769C304.093 123.954 304.439 124.223 304.717 124.556C304.995 124.889 305.197 125.278 305.311 125.698C305.971 127.551 306.028 129.568 305.474 131.455C304.919 133.343 303.783 135.004 302.228 136.197C297.628 139.87 290.507 135.483 290.556 131.268C290.605 128.582 297.163 125.427 301.2 123.751Z" fill="#A7A7A8"/>
</g>
<g style="mix-blend-mode:multiply" opacity="0.2">
<path d="M183.744 171.022C183.328 176.444 182.251 197.344 182.692 200.77C183.132 204.196 204.959 208.583 205.767 204.122C206.574 199.661 190.18 168.483 187.023 166.561C183.866 164.638 183.744 169.42 183.744 171.022Z" fill="#A7A7A8"/>
</g>
<defs>
<linearGradient id="paint0_linear_1_8301" x1="188.663" y1="280.722" x2="196.135" y2="-27.7959" gradientUnits="userSpaceOnUse">
<stop offset="0.12" stop-color="#CFCCD4"/>
<stop offset="1" stop-color="#2C2733"/>
</linearGradient>
</defs>
</svg>

<svg xmlns="http://www.w3.org/2000/svg" width="389" height="237" fill="none" xmlns:v="https://vecta.io/nano"><style><![CDATA[.B{fill-rule:evenodd}.C{fill:#a7a7a8}.D{opacity:.2}.E{fill:#474757}]]></style><g class="B"><path d="M381.07 28.419s7.757 38.571 6.876 47.789-18.402 29.576-18.402 29.576-18.499 40.05-24.47 59.643-49.869 71.474-49.869 71.474h-93.377c-32.692 0-82.88-17.252-82.88-17.252s-47.324-87.099-51.386-91.191-26.917-12.323-26.917-12.323S3.157 48.26.221 30.317l103.997 4.338 276.852-6.235z" fill="url(#A)"/><path d="M381.07 28.419l-49.16-6.211-28.557-4.929-163.042 2.465S99.74.323 90.906.027 62.154 22.208 62.154 22.208L.221 30.317s28.287 9.858 50.09 9.513l-20.726 7.024c3.93 3.004 8.376 5.252 13.116 6.63 8.246 2.465 70.204 4.362 99.617 4.017s42.26-10.647 42.26-10.647l-13.483-5.151 15.905-1.898s48.132 8.503 66.485 9.094a230.71 230.71 0 0 0 41.941-3.919l-30.563-9.858s16.322.197 44.046 2.711c24.935 2.317 54.837-5.619 72.162-9.415z" fill="#ceccd4"/></g><g style="mix-blend-mode:multiply" opacity=".35" class="B C"><path d="M308.835 37.859v26.914l27.137 4.658s1.199.518 4.184 8.257 16.811 26.79 16.811 26.79l12.577 1.405-10.081 22.699s-14.511.148-20.286 3.747-18.572 14.393-18.572 14.393l-7.684 21.196-8.173-45.374c-.514-6.186-7.977-32.804-6.802-37.29s-.465-22.034-.465-22.034l-2.056-18.238s-39.323 5.348-43.409 6.802-5.897 18.041-5.897 18.041l-13.434 31.251 15 45.423-5.775 38.522-1.884 28.959L218.737 237h-16.909l-14.829-79.928c-1.003-4.658 3.646-15.453 3.646-15.453l-6.729-47.32.661-47.444-13.483-5.151 15.905-1.898 58.214 8.306c8.271.789 50.433-3.943 50.433-3.943l-25.327-9.316 38.516 3.007z"/></g><g style="mix-blend-mode:multiply" opacity=".35" class="B C"><path d="M93.206 57.576L59.511 63.22l5.359 12.989 14.682 35.491 17.618 16.882 19.747 7.394 15.368 10.795H118.9l1.027 14.369 7.145 34.209.392 27.11-8.516-2.76-51.386-91.191s-24.47-7.64-26.917-12.323S3.377 46.411.221 30.317l50.09 9.513-20.726 7.024s14.682 6.556 24.47 8.109 39.152 2.613 39.152 2.613z"/></g><g style="mix-blend-mode:color-dodge" opacity=".46" class="B"><path d="M138.451 19.424l12.235 6.605s-8.98 2.218-14.217 3.796-33.891-.937-39.005-2.465-23.834-7.936-23.834-7.936l-1.003-6.433S86.648-.688 90.906.027s40.106 15.404 47.545 19.397z" fill="#aba7b5"/></g><g style="mix-blend-mode:multiply" opacity=".33" class="B E"><path d="M60.635 22.455l11.941 7.394 18.719.493h39.861s-30.611-2.884-35.261-3.968-22.268-6.95-22.268-6.95l-1.003-6.433-11.99 9.464z"/></g><g style="mix-blend-mode:multiply" opacity=".34" class="B E"><path d="M308.835 64.772l-11.354 26.815-1.835-47.395-31.713-9.316 44.902 2.982v26.914z"/></g><g style="mix-blend-mode:multiply" opacity=".34" class="B E"><path d="M50.311 39.83l-20.726 7.024 8.907 65.559S10.547 58.783.221 30.317l50.09 9.513z"/></g><g style="mix-blend-mode:multiply" opacity=".34" class="B E"><path d="M245.213 48.137l-26.476 25.879-16.395 17.573-3.328 15.034-14.682-9.415.245-50.327-13.483-5.151 15.905-1.898 58.214 8.306z"/></g><g style="mix-blend-mode:multiply" class="D C"><path d="M106.714 122.001c.322-.777.69-1.534 1.101-2.267.171-.345.294-.715.489-1.035a5.32 5.32 0 0 1 .881-1.183c.677-.742 1.514-1.315 2.447-1.676 1.027-.336 2.121-.404 3.181-.197.31.089.6.24.852.443s.461.455.616.74h0a2.46 2.46 0 0 1 .368.492c0 .222.171.419.244.617.123.451.123.928 0 1.38a13.83 13.83 0 0 1-1.615 4.929 6.92 6.92 0 0 1-2.055 2.317 4.46 4.46 0 0 1-2.888.887c-.661-.052-1.303-.245-1.884-.567-.563-.357-1.04-.837-1.395-1.405a4.03 4.03 0 0 1-.565-1.698 4.04 4.04 0 0 1 .223-1.777h0z"/></g><g style="mix-blend-mode:multiply" class="D C"><path d="M124.258 113.646c-1.578-2.382-2.621-5.082-3.058-7.912a10.29 10.29 0 0 1 .514-5.643 22.38 22.38 0 0 1 2.446-4.116c1.762-2.61 4.188-4.695 7.023-6.038.71-.321 1.447-.576 2.203-.764a10.77 10.77 0 0 1 5.456-1.035c2.18.285 4.211 1.271 5.789 2.812a10.3 10.3 0 0 1 2.972 5.74c.451 2.91-.084 5.888-1.518 8.454a73.01 73.01 0 0 1-3.939 6.999c-1.909 2.786-4.282 5.743-7.806 6.162a10.62 10.62 0 0 1-5.687-.91 10.71 10.71 0 0 1-4.395-3.748h0z"/></g><g style="mix-blend-mode:multiply" class="D C"><path d="M119.094 150.788c-.438-1.079-.79-2.192-1.052-3.328-.171-.517-.392-.985-.514-1.503a10.1 10.1 0 0 1-.22-2.144 13.44 13.44 0 0 1 1.052-4.929c.738-1.751 1.783-3.354 3.083-4.733.728-.716 1.678-1.16 2.692-1.256h.196a2.16 2.16 0 0 1 .856-.148h.857c.556.172 1.033.539 1.345 1.035 1.476 1.721 2.517 3.776 3.035 5.989a11.45 11.45 0 0 1 0 4.757 11.05 11.05 0 0 1-2.3 4.929 9.81 9.81 0 0 1-2.447 2.267c-.86.524-1.818.86-2.814.986-.748.106-1.511-.022-2.184-.365a3.71 3.71 0 0 1-1.585-1.557z"/></g><g style="mix-blend-mode:multiply" class="D C"><path d="M314.046 145.07c1.15 1.577 8.148-1.257 9.323-2.859 7.341-10.13 8.246-23.463 3.646-20.9s-21.191 12.274-12.969 23.759z"/></g><g style="mix-blend-mode:multiply" class="D C"><path d="M301.2 123.751a2.98 2.98 0 0 1 1.253-.268c.432.004.858.101 1.249.286a2.99 2.99 0 0 1 1.015.787 3.01 3.01 0 0 1 .594 1.142 9.33 9.33 0 0 1 .163 5.757c-.555 1.888-1.691 3.549-3.246 4.742-4.6 3.673-11.721-.714-11.672-4.929.049-2.686 6.607-5.841 10.644-7.517z"/></g><g style="mix-blend-mode:multiply" class="D C"><path d="M183.744 171.022c-.416 5.422-1.493 26.322-1.052 29.748s22.267 7.813 23.075 3.352-15.587-35.639-18.744-37.561-3.279 2.859-3.279 4.461z"/></g><defs><linearGradient id="A" x1="188.663" y1="280.722" x2="196.135" y2="-27.796" gradientUnits="userSpaceOnUse"><stop offset=".12" stop-color="#cfccd4"/><stop offset="1" stop-color="#2c2733"/></linearGradient></defs></svg>
